modules/open-iconic/icons/musical-note.svg

<svg xmlns="http://www.w3.org/2000/svg" width="8" height="8" viewBox="0 0 8 8">
  <path d="M8 0c-5 0-6 1-6 1v4.09c-.15-.05-.33-.09-.5-.09-.83 0-1.5.67-1.5 1.5s.67 1.5 1.5 1.5 1.5-.67 1.5-1.5v-3.97c.73-.23 1.99-.44 4-.5v2.06c-.15-.05-.33-.09-.5-.09-.83 0-1.5.67-1.5 1.5s.67 1.5 1.5 1.5 1.5-.67 1.5-1.5v-5.5z" />
</svg>

<svg xmlns="http://www.w3.org/2000/svg" width="8" height="8" viewBox="0 0 8 8"><path d="M8 0C3 0 2 1 2 1v4.09A1.64 1.64 0 0 0 1.5 5C.67 5 0 5.67 0 6.5S.67 8 1.5 8 3 7.33 3 6.5V2.53c.73-.23 1.99-.44 4-.5v2.06A1.64 1.64 0 0 0 6.5 4C5.67 4 5 4.67 5 5.5S5.67 7 6.5 7 8 6.33 8 5.5V0z"/></svg>
